apps/wow-docs/public/component/dropdown/dropdown-guide-3.svg

<svg xmlns="http://www.w3.org/2000/svg" width="912" height="160" fill="none"><path fill="#fff" d="M0 0h912v160H0z"/><path fill="#6B6B6B" d="M297.576 98.576a.6.6 0 0 0 0 .848l3.818 3.819a.601.601 0 0 0 .849-.849L298.849 99l3.394-3.394a.6.6 0 0 0-.849-.849zm316.848.848a.6.6 0 0 0 0-.848l-3.818-3.819a.6.6 0 0 0-.849.849L613.151 99l-3.394 3.394a.601.601 0 0 0 .849.849zM298 99.6h316v-1.2H298zm123.464 10.454h-5.614v3.248h4.718v1.26h-4.718v4.536h-1.456v-10.304h7.07zm3.024 1.764v7.28h-1.456v-7.28zm-1.554-2.38q0-.364.224-.588a.82.82 0 0 1 .602-.238q.365 0 .588.238a.77.77 0 0 1 .238.588.8.8 0 0 1-.238.588.77.77 0 0 1-.588.238.85.85 0 0 1-.602-.224.85.85 0 0 1-.224-.602m7.242 6.006 2.702 3.654h-1.806l-1.75-2.478-1.736 2.478h-1.806l2.66-3.654-2.716-3.668h1.82l1.778 2.548 1.764-2.548h1.82zm8.733-.546q-.099-.812-.574-1.358-.477-.56-1.372-.56-.813 0-1.414.56-.588.546-.714 1.372zm-5.474.56q0-1.078.448-1.918.447-.84 1.232-1.302.798-.476 1.82-.476 1.442 0 2.114.7.686.7.924 1.288a4.5 4.5 0 0 1 .322 1.736q0 .196-.014.35-.014.14-.014.182h-5.432q.126.84.728 1.372.601.532 1.386.532.63 0 1.036-.196.42-.196.574-.364t.294-.378l1.176.532q-.337.686-1.12 1.162-.784.462-1.974.462-1.022 0-1.82-.462a3.34 3.34 0 0 1-1.232-1.316q-.448-.84-.448-1.904m11.549 3.71q-1.008 0-1.806-.462a3.35 3.35 0 0 1-1.232-1.316q-.448-.84-.448-1.918t.434-1.918a3.2 3.2 0 0 1 1.246-1.316 3.46 3.46 0 0 1 1.806-.476q.588 0 1.232.308.644.294 1.078.98v-4.256h1.456v10.318h-1.456v-1.218a2.76 2.76 0 0 1-1.092.966q-.643.308-1.218.308m-2.03-3.682q0 1.12.588 1.82.601.686 1.554.686a1.93 1.93 0 0 0 1.092-.336q.504-.336.798-.91.308-.574.308-1.26 0-.672-.308-1.246a2.36 2.36 0 0 0-.798-.91 1.93 1.93 0 0 0-1.092-.336q-.952 0-1.554.7-.588.686-.588 1.792m11.871-4.732q.364 0 .588.224t.224.588a.82.82 0 0 1-.238.602.78.78 0 0 1-.574.224.8.8 0 0 1-.588-.238.8.8 0 0 1-.238-.588q0-.35.224-.574a.82.82 0 0 1 .602-.238m-.826 5.516q0-.35.224-.574a.82.82 0 0 1 .602-.238q.364 0 .588.224t.224.588a.82.82 0 0 1-.238.602.78.78 0 0 1-.574.224.8.8 0 0 1-.588-.238.8.8 0 0 1-.238-.588m11.933-2.492q.672.392 1.064 1.064.406.658.406 1.316 0 .854-.434 1.526a2.9 2.9 0 0 1-1.218 1.05q-.784.378-1.778.378t-1.778-.378a3.1 3.1 0 0 1-1.232-1.078 2.94 2.94 0 0 1-.434-1.582h1.456q0 .77.56 1.26t1.428.49q.896 0 1.456-.476.56-.49.56-1.26 0-.756-.56-1.232T464 114.38h-.728v-1.218H464q.812 0 1.33-.434t.518-1.12-.504-1.106q-.504-.434-1.288-.434-.77 0-1.274.434-.49.434-.49 1.12h-1.456q0-.827.406-1.47.42-.659 1.148-1.008.728-.364 1.666-.364.924 0 1.652.35.742.35 1.148.98t.406 1.428q0 .602-.364 1.232a3 3 0 0 1-.966 1.008m6.466 5.264-1.456-.014v-8.61l-1.778 1.008-.616-1.218 2.408-1.344h1.442zm5.418-1.176q.91 0 1.484-.588.588-.588.588-1.526t-.588-1.526q-.573-.602-1.484-.602-.896 0-1.47.602-.573.588-.574 1.526 0 .938.574 1.526t1.47.588m-3.5-2.114q0-.924.56-1.932l2.814-4.984h1.666l-2.044 3.57q.239-.056.56-.056 1.008 0 1.792.448.798.434 1.232 1.204.448.77.448 1.75t-.448 1.75a3.15 3.15 0 0 1-1.246 1.204q-.797.434-1.82.434-1.022 0-1.82-.434a3.16 3.16 0 0 1-1.246-1.204q-.447-.77-.448-1.75m12.343 2.212q.938 0 1.526-.686.588-.7.588-1.82 0-1.106-.588-1.792t-1.526-.686a1.93 1.93 0 0 0-1.092.336 2.36 2.36 0 0 0-.798.91 2.6 2.6 0 0 0-.294 1.232q0 .685.294 1.26.294.574.798.91t1.092.336m-3.654-6.188h1.456v1.26q.378-.63 1.05-.938.671-.322 1.232-.322 1.022 0 1.806.476.798.462 1.232 1.302.447.826.448 1.904 0 1.078-.448 1.932-.435.84-1.232 1.316-.784.462-1.806.462-.56 0-1.232-.322a2.5 2.5 0 0 1-1.05-.966v4.354h-1.456zm12.367 3.668 2.702 3.654h-1.806l-1.75-2.478-1.736 2.478h-1.806l2.66-3.654-2.716-3.668h1.82l1.778 2.548 1.764-2.548h1.82zm-194.81-77.606h5.11v1.26h-6.566V28.794h1.456zm9.321.126q.574 0 1.078-.322.504-.336.798-.896.308-.575.308-1.26 0-.686-.308-1.246a2.26 2.26 0 0 0-.798-.896 1.9 1.9 0 0 0-1.078-.336q-.938 0-1.526.686t-.588 1.792.588 1.792 1.526.686m-3.57-2.478q0-1.065.434-1.904.449-.84 1.232-1.302.798-.476 1.806-.476.644 0 1.232.322.603.308 1.036.938v-1.288h1.456v7.322l-1.456.014v-1.218q-.447.644-1.036.966a2.6 2.6 0 0 1-1.232.308q-1.008 0-1.806-.462a3.36 3.36 0 0 1-1.232-1.316q-.434-.84-.434-1.904m12.724 3.682q-.546 0-1.19-.294-.63-.294-1.092-.98v1.218h-1.456V28.794h1.456v4.256q.462-.714 1.092-.994.644-.294 1.204-.294 1.008 0 1.806.476a3.3 3.3 0 0 1 1.246 1.316q.448.84.448 1.918t-.448 1.918a3.3 3.3 0 0 1-1.246 1.316q-.798.462-1.82.462m-2.282-3.682q0 .685.294 1.26.294.574.798.91.518.336 1.106.336.952 0 1.54-.686.602-.7.602-1.82 0-1.106-.602-1.792-.588-.7-1.54-.7a1.93 1.93 0 0 0-1.092.336 2.5 2.5 0 0 0-.812.91 2.7 2.7 0 0 0-.294 1.246m12.43-.588q-.098-.812-.574-1.358-.476-.56-1.372-.56-.812 0-1.414.56-.588.546-.714 1.372zm-5.474.56q0-1.078.448-1.918a3.25 3.25 0 0 1 1.232-1.302q.798-.476 1.82-.476 1.442 0 2.114.7.685.7.924 1.288.322.784.322 1.736 0 .195-.014.35a3 3 0 0 0-.014.182h-5.432q.126.84.728 1.372a2.03 2.03 0 0 0 1.386.532q.63 0 1.036-.196.42-.196.574-.364a3 3 0 0 0 .294-.378l1.176.532q-.336.686-1.12 1.162-.785.462-1.974.462-1.022 0-1.82-.462a3.35 3.35 0 0 1-1.232-1.316q-.448-.84-.448-1.904m9.618-6.664v10.304h-1.456V28.794z"/><path fill="#fff" d="M298.5 53a3.5 3.5 0 0 1 3.5-3.5h308a3.5 3.5 0 0 1 3.5 3.5v34a3.5 3.5 0 0 1-3.5 3.5H302a3.5 3.5 0 0 1-3.5-3.5z"/><path stroke="#C2C2C2" d="M298.5 53a3.5 3.5 0 0 1 3.5-3.5h308a3.5 3.5 0 0 1 3.5 3.5v34a3.5 3.5 0 0 1-3.5 3.5H302a3.5 3.5 0 0 1-3.5-3.5z"/><path fill="#C2C2C2" d="M320.784 66.352V63.12h1.456v10.528h-1.456v-6.08h-2.96v-1.216zm-10.208 4.192q1.584-.592 2.528-1.936a5.04 5.04 0 0 0 .944-2.96v-1.696h1.456v1.728q0 1.471.912 2.736.912 1.248 2.448 1.808l-.768 1.136a5.9 5.9 0 0 1-1.984-1.28 6 6 0 0 1-1.312-1.968 6 6 0 0 1-1.344 2.176 5.75 5.75 0 0 1-2.112 1.408zm2.528 1.952h1.456v3.232h8.016v1.2h-9.472zm17.344-8.384v1.184H326.4v1.632h3.92v1.12h-3.92v1.744a48 48 0 0 0 2.544-.08 15 15 0 0 0 2.016-.272l.144 1.184q-1.151.224-2.288.304-1.135.064-2.896.064h-.928v-6.88zm-3.632 8.272h9.52v4.848h-1.456v-3.648h-8.064zm5.04-9.008h1.376v3.36h1.712v-3.632h1.392v8.576h-1.392v-3.744h-1.712V71.6h-1.376zm17.297-.256v5.728h2.24v1.216h-2.24v7.168h-1.456V63.12zm-10.992 2.208h3.456v-2.032h1.488v2.032h3.376v1.184h-8.32zm.752 5.536q0-.945.448-1.68.447-.751 1.232-1.168a3.8 3.8 0 0 1 1.776-.416q.991 0 1.776.416.8.416 1.248 1.168.447.735.448 1.68 0 .945-.448 1.696-.448.736-1.248 1.152-.784.416-1.776.416a3.8 3.8 0 0 1-1.776-.416 3.1 3.1 0 0 1-1.232-1.152 3.25 3.25 0 0 1-.448-1.696m1.392 0q0 .912.576 1.488t1.488.576 1.488-.576q.591-.576.592-1.488 0-.912-.592-1.488-.576-.576-1.488-.576-.897 0-1.488.576-.576.576-.576 1.488m19.504-2.768v-4.688h1.36v13.12h-1.36v-7.232h-2.192v-1.2zm-7.936 5.056q1.424-.864 2.224-2.544.8-1.695.8-3.584v-2.592h1.408v2.544q0 1.776.736 3.376t2.096 2.448l-.832 1.136q-.944-.576-1.632-1.584a8.5 8.5 0 0 1-1.056-2.288 8.7 8.7 0 0 1-1.136 2.464q-.72 1.088-1.712 1.712zm10.8-10.048h1.408v14.112h-1.408zm6.289 11.136v-3.728q-.88-.48-1.376-1.216a3.06 3.06 0 0 1-.48-1.68q0-1.087.656-1.92.672-.832 1.84-1.28 1.167-.465 2.656-.464 1.503 0 2.672.464 1.183.448 1.84 1.28.656.832.656 1.92 0 .928-.48 1.664-.464.72-1.328 1.216v3.744h3.056v1.2H365.89v-1.2zm-.432-6.624q0 .752.464 1.328.48.56 1.328.88.847.304 1.936.304 1.087 0 1.936-.304.848-.32 1.328-.88.48-.576.48-1.328t-.48-1.312q-.48-.576-1.328-.88-.849-.32-1.936-.32-1.089 0-1.936.32-.849.304-1.328.88a2 2 0 0 0-.464 1.312m5.616 6.624v-3.184a7.8 7.8 0 0 1-1.888.208q-1.025 0-1.856-.208v3.184z"/><path stroke="#C2C2C2" stroke-linejoin="bevel" stroke-width="1.4" d="m598 69-6 5-6-5"/></svg>

<svg width="912" height="160" viewBox="0 0 912 160" fill="none" xmlns="http://www.w3.org/2000/svg">
<rect width="912" height="160" fill="white"/>
<path d="M297.576 98.5757C297.341 98.8101 297.341 99.1899 297.576 99.4243L301.394 103.243C301.628 103.477 302.008 103.477 302.243 103.243C302.477 103.008 302.477 102.628 302.243 102.394L298.849 99L302.243 95.6059C302.477 95.3716 302.477 94.9917 302.243 94.7574C302.008 94.523 301.628 94.523 301.394 94.7574L297.576 98.5757ZM614.424 99.4242C614.659 99.1899 614.659 98.81 614.424 98.5757L610.606 94.7573C610.372 94.523 609.992 94.523 609.757 94.7573C609.523 94.9916 609.523 95.3715 609.757 95.6059L613.151 99L609.757 102.394C609.523 102.628 609.523 103.008 609.757 103.243C609.992 103.477 610.372 103.477 610.606 103.243L614.424 99.4242ZM298 99.6L614 99.6L614 98.4L298 98.4L298 99.6Z" fill="#6B6B6B"/>
<path d="M421.464 110.054H415.85V113.302H420.568V114.562H415.85V119.098H414.394V108.794H421.464V110.054ZM424.488 111.818V119.098H423.032V111.818H424.488ZM422.934 109.438C422.934 109.195 423.009 108.999 423.158 108.85C423.317 108.691 423.518 108.612 423.76 108.612C424.003 108.612 424.199 108.691 424.348 108.85C424.507 108.999 424.586 109.195 424.586 109.438C424.586 109.671 424.507 109.867 424.348 110.026C424.199 110.185 424.003 110.264 423.76 110.264C423.518 110.264 423.317 110.189 423.158 110.04C423.009 109.881 422.934 109.681 422.934 109.438ZM430.176 115.444L432.878 119.098H431.072L429.322 116.62L427.586 119.098H425.78L428.44 115.444L425.724 111.776H427.544L429.322 114.324L431.086 111.776H432.906L430.176 115.444ZM438.909 114.898C438.843 114.357 438.652 113.904 438.335 113.54C438.017 113.167 437.56 112.98 436.963 112.98C436.421 112.98 435.95 113.167 435.549 113.54C435.157 113.904 434.919 114.361 434.835 114.912L438.909 114.898ZM433.435 115.458C433.435 114.739 433.584 114.1 433.883 113.54C434.181 112.98 434.592 112.546 435.115 112.238C435.647 111.921 436.253 111.762 436.935 111.762C437.896 111.762 438.601 111.995 439.049 112.462C439.506 112.929 439.814 113.358 439.973 113.75C440.187 114.273 440.295 114.851 440.295 115.486C440.295 115.617 440.29 115.733 440.281 115.836C440.271 115.929 440.267 115.99 440.267 116.018H434.835C434.919 116.578 435.161 117.035 435.563 117.39C435.964 117.745 436.426 117.922 436.949 117.922C437.369 117.922 437.714 117.857 437.985 117.726C438.265 117.595 438.456 117.474 438.559 117.362C438.661 117.25 438.759 117.124 438.853 116.984L440.029 117.516C439.805 117.973 439.431 118.361 438.909 118.678C438.386 118.986 437.728 119.14 436.935 119.14C436.253 119.14 435.647 118.986 435.115 118.678C434.592 118.361 434.181 117.922 433.883 117.362C433.584 116.802 433.435 116.167 433.435 115.458ZM444.984 119.168C444.312 119.168 443.71 119.014 443.178 118.706C442.655 118.389 442.245 117.95 441.946 117.39C441.647 116.83 441.498 116.191 441.498 115.472C441.498 114.753 441.643 114.114 441.932 113.554C442.231 112.985 442.646 112.546 443.178 112.238C443.71 111.921 444.312 111.762 444.984 111.762C445.376 111.762 445.787 111.865 446.216 112.07C446.645 112.266 447.005 112.593 447.294 113.05V108.794H448.75V119.112H447.294V117.894C446.995 118.333 446.631 118.655 446.202 118.86C445.773 119.065 445.367 119.168 444.984 119.168ZM442.954 115.486C442.954 116.233 443.15 116.839 443.542 117.306C443.943 117.763 444.461 117.992 445.096 117.992C445.488 117.992 445.852 117.88 446.188 117.656C446.524 117.432 446.79 117.129 446.986 116.746C447.191 116.363 447.294 115.943 447.294 115.486C447.294 115.038 447.191 114.623 446.986 114.24C446.79 113.857 446.524 113.554 446.188 113.33C445.852 113.106 445.488 112.994 445.096 112.994C444.461 112.994 443.943 113.227 443.542 113.694C443.15 114.151 442.954 114.749 442.954 115.486ZM454.825 110.754C455.068 110.754 455.264 110.829 455.413 110.978C455.563 111.127 455.637 111.323 455.637 111.566C455.637 111.809 455.558 112.009 455.399 112.168C455.25 112.317 455.059 112.392 454.825 112.392C454.592 112.392 454.396 112.313 454.237 112.154C454.079 111.995 453.999 111.799 453.999 111.566C453.999 111.333 454.074 111.141 454.223 110.992C454.382 110.833 454.583 110.754 454.825 110.754ZM453.999 116.27C453.999 116.037 454.074 115.845 454.223 115.696C454.382 115.537 454.583 115.458 454.825 115.458C455.068 115.458 455.264 115.533 455.413 115.682C455.563 115.831 455.637 116.027 455.637 116.27C455.637 116.513 455.558 116.713 455.399 116.872C455.25 117.021 455.059 117.096 454.825 117.096C454.592 117.096 454.396 117.017 454.237 116.858C454.079 116.699 453.999 116.503 453.999 116.27ZM465.932 113.778C466.38 114.039 466.735 114.394 466.996 114.842C467.267 115.281 467.402 115.719 467.402 116.158C467.402 116.727 467.257 117.236 466.968 117.684C466.679 118.132 466.273 118.482 465.75 118.734C465.227 118.986 464.635 119.112 463.972 119.112C463.309 119.112 462.717 118.986 462.194 118.734C461.671 118.473 461.261 118.113 460.962 117.656C460.673 117.189 460.528 116.662 460.528 116.074H461.984C461.984 116.587 462.171 117.007 462.544 117.334C462.917 117.661 463.393 117.824 463.972 117.824C464.569 117.824 465.055 117.665 465.428 117.348C465.801 117.021 465.988 116.601 465.988 116.088C465.988 115.584 465.801 115.173 465.428 114.856C465.055 114.539 464.579 114.38 464 114.38H463.272V113.162H464C464.541 113.162 464.985 113.017 465.33 112.728C465.675 112.439 465.848 112.065 465.848 111.608C465.848 111.151 465.68 110.782 465.344 110.502C465.008 110.213 464.579 110.068 464.056 110.068C463.543 110.068 463.118 110.213 462.782 110.502C462.455 110.791 462.292 111.165 462.292 111.622H460.836C460.836 111.071 460.971 110.581 461.242 110.152C461.522 109.713 461.905 109.377 462.39 109.144C462.875 108.901 463.431 108.78 464.056 108.78C464.672 108.78 465.223 108.897 465.708 109.13C466.203 109.363 466.585 109.69 466.856 110.11C467.127 110.53 467.262 111.006 467.262 111.538C467.262 111.939 467.141 112.35 466.898 112.77C466.655 113.181 466.333 113.517 465.932 113.778ZM472.398 119.042L470.942 119.028V110.418L469.164 111.426L468.548 110.208L470.956 108.864H472.398V119.042ZM477.816 117.866C478.423 117.866 478.918 117.67 479.3 117.278C479.692 116.886 479.888 116.377 479.888 115.752C479.888 115.127 479.692 114.618 479.3 114.226C478.918 113.825 478.423 113.624 477.816 113.624C477.219 113.624 476.729 113.825 476.346 114.226C475.964 114.618 475.772 115.127 475.772 115.752C475.772 116.377 475.964 116.886 476.346 117.278C476.729 117.67 477.219 117.866 477.816 117.866ZM474.316 115.752C474.316 115.136 474.503 114.492 474.876 113.82L477.69 108.836H479.356L477.312 112.406C477.471 112.369 477.658 112.35 477.872 112.35C478.544 112.35 479.142 112.499 479.664 112.798C480.196 113.087 480.607 113.489 480.896 114.002C481.195 114.515 481.344 115.099 481.344 115.752C481.344 116.405 481.195 116.989 480.896 117.502C480.598 118.015 480.182 118.417 479.65 118.706C479.118 118.995 478.512 119.14 477.83 119.14C477.149 119.14 476.542 118.995 476.01 118.706C475.478 118.417 475.063 118.015 474.764 117.502C474.466 116.989 474.316 116.405 474.316 115.752ZM486.659 117.964C487.284 117.964 487.793 117.735 488.185 117.278C488.577 116.811 488.773 116.205 488.773 115.458C488.773 114.721 488.577 114.123 488.185 113.666C487.793 113.209 487.284 112.98 486.659 112.98C486.267 112.98 485.903 113.092 485.567 113.316C485.231 113.54 484.965 113.843 484.769 114.226C484.573 114.599 484.475 115.01 484.475 115.458C484.475 115.915 484.573 116.335 484.769 116.718C484.965 117.101 485.231 117.404 485.567 117.628C485.903 117.852 486.267 117.964 486.659 117.964ZM483.005 111.776H484.461V113.036C484.713 112.616 485.063 112.303 485.511 112.098C485.959 111.883 486.369 111.776 486.743 111.776C487.424 111.776 488.026 111.935 488.549 112.252C489.081 112.56 489.491 112.994 489.781 113.554C490.079 114.105 490.229 114.739 490.229 115.458C490.229 116.177 490.079 116.821 489.781 117.39C489.491 117.95 489.081 118.389 488.549 118.706C488.026 119.014 487.424 119.168 486.743 119.168C486.369 119.168 485.959 119.061 485.511 118.846C485.063 118.622 484.713 118.3 484.461 117.88V122.234H483.005V111.776ZM495.372 115.444L498.074 119.098H496.268L494.518 116.62L492.782 119.098H490.976L493.636 115.444L490.92 111.776H492.74L494.518 114.324L496.282 111.776H498.102L495.372 115.444Z" fill="#6B6B6B"/>
<path d="M300.562 37.838H305.672V39.098H299.106V28.794H300.562V37.838ZM309.883 37.964C310.266 37.964 310.625 37.8567 310.961 37.642C311.297 37.418 311.563 37.1193 311.759 36.746C311.965 36.3633 312.067 35.9433 312.067 35.486C312.067 35.0287 311.965 34.6133 311.759 34.24C311.563 33.8573 311.297 33.5587 310.961 33.344C310.625 33.12 310.266 33.008 309.883 33.008C309.258 33.008 308.749 33.2367 308.357 33.694C307.965 34.1513 307.769 34.7487 307.769 35.486C307.769 36.2233 307.965 36.8207 308.357 37.278C308.749 37.7353 309.258 37.964 309.883 37.964ZM306.313 35.486C306.313 34.7767 306.458 34.142 306.747 33.582C307.046 33.022 307.457 32.588 307.979 32.28C308.511 31.9627 309.113 31.804 309.785 31.804C310.215 31.804 310.625 31.9113 311.017 32.126C311.419 32.3313 311.764 32.644 312.053 33.064V31.776H313.509V39.098L312.053 39.112V37.894C311.755 38.3233 311.409 38.6453 311.017 38.86C310.625 39.0653 310.215 39.168 309.785 39.168C309.113 39.168 308.511 39.014 307.979 38.706C307.457 38.3887 307.046 37.95 306.747 37.39C306.458 36.83 306.313 36.1953 306.313 35.486ZM319.037 39.168C318.673 39.168 318.276 39.07 317.847 38.874C317.427 38.678 317.063 38.3513 316.755 37.894V39.112H315.299V28.794H316.755V33.05C317.063 32.574 317.427 32.2427 317.847 32.056C318.276 31.86 318.678 31.762 319.051 31.762C319.723 31.762 320.325 31.9207 320.857 32.238C321.389 32.5553 321.804 32.994 322.103 33.554C322.402 34.114 322.551 34.7533 322.551 35.472C322.551 36.1907 322.402 36.83 322.103 37.39C321.804 37.95 321.389 38.3887 320.857 38.706C320.325 39.014 319.718 39.168 319.037 39.168ZM316.755 35.486C316.755 35.9433 316.853 36.3633 317.049 36.746C317.245 37.1287 317.511 37.432 317.847 37.656C318.192 37.88 318.561 37.992 318.953 37.992C319.588 37.992 320.101 37.7633 320.493 37.306C320.894 36.8393 321.095 36.2327 321.095 35.486C321.095 34.7487 320.894 34.1513 320.493 33.694C320.101 33.2273 319.588 32.994 318.953 32.994C318.561 32.994 318.197 33.106 317.861 33.33C317.525 33.554 317.254 33.8573 317.049 34.24C316.853 34.6227 316.755 35.038 316.755 35.486ZM329.185 34.898C329.12 34.3567 328.928 33.904 328.611 33.54C328.294 33.1667 327.836 32.98 327.239 32.98C326.698 32.98 326.226 33.1667 325.825 33.54C325.433 33.904 325.195 34.3613 325.111 34.912L329.185 34.898ZM323.711 35.458C323.711 34.7393 323.86 34.1 324.159 33.54C324.458 32.98 324.868 32.546 325.391 32.238C325.923 31.9207 326.53 31.762 327.211 31.762C328.172 31.762 328.877 31.9953 329.325 32.462C329.782 32.9287 330.09 33.358 330.249 33.75C330.464 34.2727 330.571 34.8513 330.571 35.486C330.571 35.6167 330.566 35.7333 330.557 35.836C330.548 35.9293 330.543 35.99 330.543 36.018H325.111C325.195 36.578 325.438 37.0353 325.839 37.39C326.24 37.7447 326.702 37.922 327.225 37.922C327.645 37.922 327.99 37.8567 328.261 37.726C328.541 37.5953 328.732 37.474 328.835 37.362C328.938 37.25 329.036 37.124 329.129 36.984L330.305 37.516C330.081 37.9733 329.708 38.3607 329.185 38.678C328.662 38.986 328.004 39.14 327.211 39.14C326.53 39.14 325.923 38.986 325.391 38.678C324.868 38.3607 324.458 37.922 324.159 37.362C323.86 36.802 323.711 36.1673 323.711 35.458ZM333.329 28.794V39.098H331.873V28.794H333.329Z" fill="#6B6B6B"/>
<path d="M298.5 53C298.5 51.067 300.067 49.5 302 49.5H610C611.933 49.5 613.5 51.067 613.5 53V87C613.5 88.933 611.933 90.5 610 90.5H302C300.067 90.5 298.5 88.933 298.5 87V53Z" fill="white"/>
<path d="M298.5 53C298.5 51.067 300.067 49.5 302 49.5H610C611.933 49.5 613.5 51.067 613.5 53V87C613.5 88.933 611.933 90.5 610 90.5H302C300.067 90.5 298.5 88.933 298.5 87V53Z" stroke="#C2C2C2"/>
<path d="M320.784 66.352V63.12H322.24V73.648H320.784V67.568H317.824V66.352H320.784ZM310.576 70.544C311.632 70.1493 312.475 69.504 313.104 68.608C313.733 67.712 314.048 66.7253 314.048 65.648V63.952H315.504V65.68C315.504 66.6613 315.808 67.5733 316.416 68.416C317.024 69.248 317.84 69.8507 318.864 70.224L318.096 71.36C317.339 71.0613 316.677 70.6347 316.112 70.08C315.547 69.5147 315.109 68.8587 314.8 68.112C314.501 68.944 314.053 69.6693 313.456 70.288C312.869 70.9067 312.165 71.376 311.344 71.696L310.576 70.544ZM313.104 72.496H314.56V75.728H322.576V76.928H313.104V72.496ZM330.448 64.112V65.296H326.4V66.928H330.32V68.048H326.4V69.792C327.446 69.7813 328.294 69.7547 328.944 69.712C329.606 69.6693 330.278 69.5787 330.96 69.44L331.104 70.624C330.336 70.7733 329.574 70.8747 328.816 70.928C328.059 70.9707 327.094 70.992 325.92 70.992H324.992V64.112H330.448ZM326.816 72.384H336.336V77.232H334.88V73.584H326.816V72.384ZM331.856 63.376H333.232V66.736H334.944V63.104H336.336V71.68H334.944V67.936H333.232V71.6H331.856V63.376ZM349.153 63.12V68.848H351.393V70.064H349.153V77.232H347.697V63.12H349.153ZM338.161 65.328H341.617V63.296H343.105V65.328H346.481V66.512H338.161V65.328ZM338.913 70.864C338.913 70.2347 339.062 69.6747 339.361 69.184C339.659 68.6827 340.07 68.2933 340.593 68.016C341.126 67.7387 341.718 67.6 342.369 67.6C343.03 67.6 343.622 67.7387 344.145 68.016C344.678 68.2933 345.094 68.6827 345.393 69.184C345.691 69.6747 345.841 70.2347 345.841 70.864C345.841 71.4933 345.691 72.0587 345.393 72.56C345.094 73.0507 344.678 73.4347 344.145 73.712C343.622 73.9893 343.03 74.128 342.369 74.128C341.718 74.128 341.126 73.9893 340.593 73.712C340.07 73.4347 339.659 73.0507 339.361 72.56C339.062 72.0587 338.913 71.4933 338.913 70.864ZM340.305 70.864C340.305 71.472 340.497 71.968 340.881 72.352C341.265 72.736 341.761 72.928 342.369 72.928C342.977 72.928 343.473 72.736 343.857 72.352C344.251 71.968 344.449 71.472 344.449 70.864C344.449 70.256 344.251 69.76 343.857 69.376C343.473 68.992 342.977 68.8 342.369 68.8C341.771 68.8 341.275 68.992 340.881 69.376C340.497 69.76 340.305 70.256 340.305 70.864ZM359.809 68.096V63.408H361.169V76.528H359.809V69.296H357.617V68.096H359.809ZM351.873 73.152C352.822 72.576 353.564 71.728 354.097 70.608C354.63 69.4773 354.897 68.2827 354.897 67.024V64.432H356.305V66.976C356.305 68.16 356.55 69.2853 357.041 70.352C357.532 71.4187 358.23 72.2347 359.137 72.8L358.305 73.936C357.676 73.552 357.132 73.024 356.673 72.352C356.225 71.68 355.873 70.9173 355.617 70.064C355.35 70.9813 354.972 71.8027 354.481 72.528C354.001 73.2533 353.43 73.824 352.769 74.24L351.873 73.152ZM362.673 63.104H364.081V77.216H362.673V63.104ZM368.962 74.24V70.512C368.375 70.192 367.916 69.7867 367.586 69.296C367.266 68.7947 367.106 68.2347 367.106 67.616C367.106 66.8907 367.324 66.2507 367.762 65.696C368.21 65.1413 368.823 64.7147 369.602 64.416C370.38 64.1067 371.266 63.952 372.258 63.952C373.26 63.952 374.151 64.1067 374.93 64.416C375.719 64.7147 376.332 65.1413 376.77 65.696C377.207 66.2507 377.426 66.8907 377.426 67.616C377.426 68.2347 377.266 68.7893 376.946 69.28C376.636 69.76 376.194 70.1653 375.618 70.496V74.24H378.674V75.44H365.89V74.24H368.962ZM368.53 67.616C368.53 68.1173 368.684 68.56 368.994 68.944C369.314 69.3173 369.756 69.6107 370.322 69.824C370.887 70.0267 371.532 70.128 372.258 70.128C372.983 70.128 373.628 70.0267 374.194 69.824C374.759 69.6107 375.202 69.3173 375.522 68.944C375.842 68.56 376.002 68.1173 376.002 67.616C376.002 67.1147 375.842 66.6773 375.522 66.304C375.202 65.92 374.759 65.6267 374.194 65.424C373.628 65.2107 372.983 65.104 372.258 65.104C371.532 65.104 370.887 65.2107 370.322 65.424C369.756 65.6267 369.314 65.92 368.994 66.304C368.684 66.6773 368.53 67.1147 368.53 67.616ZM374.146 74.24V71.056C373.591 71.1947 372.962 71.264 372.258 71.264C371.575 71.264 370.956 71.1947 370.402 71.056V74.24H374.146Z" fill="#C2C2C2"/>
<path d="M598 69L592 74L586 69" stroke="#C2C2C2" stroke-width="1.4" stroke-linejoin="bevel"/>
</svg>
